X:1
T:13 - Ahi, dispietata morte!
T:Luca Marenzio (1556 - 1599) 1º Libro di Madrigali a quattro voci (Venetia, 1592)
T:13 - Ahi, dispietata morte!
T:© 2018 Ed. Marcos Mato
T:© 2018 Ed. Marcos Mato
T:© 2018 Ed. Marcos Mato
T:© 2018 Ed. Marcos Mato
T:© 2018 Ed. Marcos Mato
C:Luca Marenzio (1556 - 1599)
C:1º Libro di Madrigali a quattro voci (Venetia, 1592)
Z:© 2018 Ed. Marcos Mato
%%score [ 1 2 3 4 ]
L:1/8
M:4/4
K:C
V:1 alto1 nm="Soprano" snm="Sop."
V:2 alto nm="Alto" snm="A."
V:3 tenor transpose=-12 nm="Tenor" snm="T."
V:4 bass nm="Basso" snm="Bajo"
V:1
 E4 | [Ce]2 |[M:4/2] E16 | z4 e8 d4 | c12 B4 | A16 | ^G8 z8 | e12 d2 c2 | B8 c6 B2 | A8 z8 | %10
w: ||Ahi,|dis- pie-|ta- ta|mor-|te!|Ahi, cru- del|vi- * *|ta!|
 z4 d6 d2 d4 | c4 A4 B8 | c8 z8 | z16 | z16 | A6 A2 B4 c4 | z8 z4 c4- | c2 c2 d4 e4 E4 | E8 C8- | %19
w: L'u- na m'ha|post' in do-|glia|||l'al- tra mi tien,|l'al-|* tra mi tien qua|giù con-|
 C4 G8 F4 | E16 | E8 z4 G4- | G4 D2 E2 F2 G2 A4 | E2 F2 G3 A B8 | A8 z2 B2 c2 A2 | %25
w: * tra mia|vo-|glia et|_ lei che se n'è gi-|ta se- guir non pos-|so, se- guir non|
 B2 c4 B2 c4 G4- | G4 A4 G4 ^F4 | G8 E8- | E8 z8 | z8 z4 A4 | G3 F G2 G2 A8 | G8 G8 | G8 d8- | %33
w: pos- * * so ch'el-|* la no'l con-|sen- te:|_|nel|mez- zo del mio cor|ma- don-|na sie-|
 d8 G8 | z4 G4 A4 G4 | c6 B2 A4 G2 C2 | F4 E4 A6 G2 | F6 ED F4 G4 | A16- | A8 z8 | z8 z4 c4 | %41
w: * de|et qual è|la mia vi- ta, et|qual è la mia|vi- * * * *|ta,|_|et|
 A4 G4 e6 d2 | c4 B4 z4 B4 | c4 B4 e6 d2 | c4 B4 z4 E4- | E4 E4 E8 | E16 | E16 |] %48
w: qual è la mia|vi- ta, et|qual è la mia|vi- ta el-|* la se'l|ve-|de.|
V:2
 B,4 | [E,A]2 |[M:4/2] z8 B,8- | B,8 C8- | C4 D4 E8 | A,4 C8 B,2 A,2 | B,8 z4 E4- | %7
w: ||Ahi,|_ dis-|* pie- ta-|ta mor- * *|te! Ahi,|
 E4 ^F4 ^G4 A4- | A4 ^G4 A6"^§" =G=F | E8 z8 | z4 D6 D2 D4 | E4 F4 D8 | C8 z8 | z4 A,4 D8- | %14
w: _ cru- del vi-||ta!|L'u- na m'ha|post' in do-|glia|ha spen-|
 D8 ^C4 z4 | z4 D6 D2 E4 | F8 z4 E4- | E2 E2 G4 G8 | G,8 E,4 A,4- | A,4 G,4 C8 | B,16 | %21
w: * te:|L'al- tra mi|tien, l'al-|* tra mi tien|qua giù con-|* tra mia|vo-|
 C2 A,2 C6 D2 E2 F2 | G4 G4 z8 | z4 B,8 D2 E2 | F2 G2 A4 A2 G2 E2 F2 | G8 E8 | E6 F2 E4 D4 | %27
w: glia et lei che se n'è|gi- ta,|et lei che|se n'è gi- ta se- guir non|pos- so|ch'el- la no'l con-|
 D8 ^C8- | C8 z8 | z4 E4 D3 =C D2 D2 | E8 z8 | z4 E8 D4- | D4 E4 F8- | F8 E8- | E16 | %35
w: sen- te:|_|nel mez- zo del mio|cor|ma- don-|* na sie-|* de|_|
 z4 z2 D2 F4 E4 | A6 G2 F4 E4 | z8 z4 D4 | F4 E4 F6 E2 | D4 C2 C2 F4 E4 | A6 G2 F4 E4 | z8 G8 | %42
w: et qual è|la mia vi- ta,|et|qual è la mia|vi- ta, et qual è|la mia vi- ta|el-|
 G8 G8 | G16 | G,16 | B,8 B,4 B,4 | C16 | B,16 |] %48
w: la sel|ve-|de,|el- la se'l|ve-|de.|
V:3
 ^G,4 | [C,F]2 |[M:4/2] z8 ^G,8- | G,8 A,8- | A,4 B,4 C8 | D4 E8 D4 | E8 z8 | C12 B,2 A,2 | %8
w: ||Ahi,|_ dis-|* pie- ta-|ta mor- *|te!|Ahi, cru- del|
 B,8 A,4 C4- | C2 C2 C4 B,4 C4 | A,8 B,8 | z8 z4 D4 | F4 E4 D4 C4 | D6 C2 B,4 A,2 A,2- | %14
w: vi- ta! L'u-|* na m'ha post' in|do- glia|et|mie spe- ranz' a-|cer- ba- ment' ha spen-|
 A,2 ^G,^F, G,4 A,4 z4 | z8 z4 C4- | C2 C2 D4 E6 A,2- | A,2 A,2 B,4 C4 C,4 | C,8 C,8 | C,12 D,4 | %20
w: * * * * te:|l'al-|* tra mi tien, l'al-|* tra mi tien qua|giù con-|tra mia|
 E,8 E,8 | z4 A,8 G,4- | G,2 A,2 B,2 C2 D4 A,2 B,2 | C2 D2 E4 D4 G,4 | %24
w: vo- glia|et lei|_ che se n'è gi- ta se-|guir non pos- so, et|
 D,2 E,2 F,2 G,2 A,2 E,2 z2 C2 | D2 E2 D4 C8 | C6 C2 C4 A,4 | _B,8 A,8 | z4 E8 D4- | %29
w: lei che se n'è gi- ta se-|guir non pos- so|ch'el- la no'l con-|sen- te:|ma pur|
 D2 B,2 C2 B,2 A,8 | B,4 z2 E2 D3 C D2 D2 | E4 C8 B,4 | B,4 C8 B,2 A,2 | B,8 C4 G,4 | %34
w: _ ogn' hor pre- sen-|te Nel mez- zo del mio|cor ma- don-|na sie- * *|* de et|
 A,4 G,4 C6 B,2 | A,4 G,4 z8 | C8 C4 C4 | D16 | C8 z8 | A,8 A,4 C4 | C8 C8 | z4 B,4 C4 B,4 | %42
w: qual è la mia|vi- ta|el- la se'l|ve-|de,|el- la sel|ve- de,|et qual è|
 E6 D2 C4 B,4 | z4 B,4 C4 B,4 | E6 D2 C4 B,4 | z4 ^G,6 G,2 G,4 | A,16 | ^G,16 |] %48
w: la mia vi- ta,|et qual è|la mia vi- ta|el- la sel|ve-|de.|
V:4
 E,4 | [G,,D]2 |[M:4/2] z8 E,8- | E,8 z8 | A,12 G,4 | F,4 E,4 F,8 | E,8 z4 C,4- | %7
w: ||Ahi,|_|dis- pie-|ta- ta mor-|te! Ahi,|
 C,4 B,,2 A,,2 E,8- | E,8 A,,4 A,4- | A,2 A,2 A,4 G,4 E,4 | ^F,8 G,8 | z8 z4 G,4 | %12
w: _ cru- del vi-|* ta! L'u-|* na m'ha post' in|do- glia|et|
 A,6 G,2 F,4 E,4 | F,6 E,2 D,4 C,4 | B,,8 A,,4 z4 | z16 | F,6 F,2 G,4 A,4 | A,,4 G,,4 z8 | %18
w: mie spe- ranz' a-|cer- ba- men- te\_ha|spen- te:||l'al- tra mi tien|qua giù|
 z4 G,8 F,4- | F,4 E,4 A,8- | A,4 ^G,2 ^F,2 G,8 | A,4 A,,4 C,6 D,2 | E,2 F,2 G,4 D,2 E,2 F,2 G,2 | %23
w: con- tra|_ mia vo-||glia et lei che|se n'è gi- ta se- guir non|
 A,4 E,2 E,2 G,2 A,2 B,2 C2 | D4 D,2 E,2 F,2 G,2 A,4 | G,8 z4 C,4- | C,4 A,,4 C,4 D,4 | G,,8 A,,8 | %28
w: pos- so, et lei che se n'è|gi- ta se- guir non pos-|so ch'el-|* la no'l con-|sen- te:|
 A,8 G,6 ^F,2 | G,4 E,4 =F,8 | E,8 z8 | z4 C,8 G,4- | G,4 E,4 D,8- | D,8 C,8- | C,16 | z16 | %36
w: ma pur ogn'|hor pre- sen-|te,|ma- don-|* na sie-|* de|_||
 A,8 A,4 A,4 | _B,16 | A,4 A,,4 D,4 C,4 | F,6 E,2 D,4 C,2 E,2 | F,4 E,4 A,6 G,2 | F,4 E,4 z8 | %42
w: el- la se'l|ve-|de, et qual è|la mia vi- ta, et|qual è la mia|vi- ta|
 E,16- | E,16 | E,16 | E,16 | A,,16 | E,16 |] %48
w: el-||la|se'l|ve-|de.|

